img/INNOQ_Logo.svg

<svg height="25" viewBox="0 0 105 25" width="105" xmlns="http://www.w3.org/2000/svg"><g fill="none" fill-rule="evenodd"><path d="m62.2232315 0c7.4723339 0 12.7767685 5.33088235 12.7767685 12.5 0 7.1691176-5.3044346 12.5-12.7767685 12.5s-12.7767685-5.3308824-12.7767685-12.5c0-7.16911765 5.3044346-12.5 12.7767685-12.5zm-56.45754175.45951287v24.12683823h-5.76568975v-24.12683823zm8.30286995.00013787 11.0235376 14.75183826v-14.75183826h5.5355234l11.0696631 14.75183826v-14.75183826h5.7656897v24.12683826h-5.5350621l-11.0239988-14.70588238v14.70588238h-5.5811877l-11.0239988-14.70588238v14.70588238h-5.76568977v-24.12683826zm48.1546718 5.05505514c-3.920669 0-6.7343256 2.84926471-6.7343256 6.98529412 0 4.1360294 2.7675311 6.9852941 6.7343256 6.9852941 3.920669 0 6.7347869-2.8492647 6.7347869-6.9852941 0-4.13602941-2.8141179-6.98529412-6.7347869-6.98529412z" fill="#fff"/><path d="m90.1680815 0c-7.7011885 0-13.1680815 5.33088235-13.1680815 12.5 0 7.1691176 5.466893 12.5 13.1680815 12.5 2.614601 0 4.8488964-.6893382 6.7504244-1.8841912l1.0933787 1.4246324h6.9881154l-3.946146-5.1470588c1.379083-1.9301471 2.187233-4.1819853 2.187233-6.8933824.095076-7.16911765-5.3718171-12.5-13.0730055-12.5m0 5.51470588c4.040747 0 6.9405772 2.84926471 6.9405772 6.98529412 0 .78125-.0955517 1.5165441-.2852292 2.2058824l-.8081494-1.0569853h-6.4651952l3.9456706 5.1011029c-.950764.4595588-2.0916808.7352941-3.2801358.7352941-4.040747 0-6.9405773-2.8492647-6.9405773-6.9852941-.0480135-4.09007353 2.8522921-6.98529412 6.8930391-6.98529412" fill="#6351fe"/></g></svg>

<?xml version="1.0" encoding="UTF-8"?>
<svg width="105px" height="25px" viewBox="0 0 105 25" version="1.1" xmlns="http://www.w3.org/2000/svg" xmlns:xlink="http://www.w3.org/1999/xlink">
    <!-- Generator: Sketch 63.1 (92452) - https://sketch.com -->
    <title>Group</title>
    <desc>Created with Sketch.</desc>
    <defs>
        <path d="M62.2232315,8.8817842e-15 C69.6955654,8.8817842e-15 75,5.33088235 75,12.5 C75,19.6691176 69.6955654,25 62.2232315,25 C54.7508976,25 49.446463,19.6691176 49.446463,12.5 C49.446463,5.33088235 54.7508976,8.8817842e-15 62.2232315,8.8817842e-15 Z M5.76568975,0.459512868 L5.76568975,24.5863511 L-4.4408921e-15,24.5863511 L-4.4408921e-15,0.459512868 L5.76568975,0.459512868 Z M14.0685597,0.459650735 L25.0920973,15.211489 L25.0920973,0.459650735 L30.6276207,0.459650735 L41.6972838,15.211489 L41.6972838,0.459650735 L47.4629735,0.459650735 L47.4629735,24.586489 L41.9279114,24.586489 L30.9039126,9.88060662 L30.9039126,24.586489 L25.3227249,24.586489 L14.2987261,9.88060662 L14.2987261,24.586489 L8.53303633,24.586489 L8.53303633,0.459650735 L14.0685597,0.459650735 Z M62.2232315,5.51470588 C58.3025625,5.51470588 55.4889059,8.36397059 55.4889059,12.5 C55.4889059,16.6360294 58.256437,19.4852941 62.2232315,19.4852941 C66.1439005,19.4852941 68.9580184,16.6360294 68.9580184,12.5 C68.9580184,8.36397059 66.1439005,5.51470588 62.2232315,5.51470588 Z" id="path-1"></path>
        <path d="M90.1680815,0 C82.466893,0 77,5.33088235 77,12.5 C77,19.6691176 82.466893,25 90.1680815,25 C92.7826825,25 95.0169779,24.3106618 96.9185059,23.1158088 L98.0118846,24.5404412 L105,24.5404412 L101.053854,19.3933824 C102.432937,17.4632353 103.241087,15.2113971 103.241087,12.5 C103.336163,5.33088235 97.8692699,0 90.1680815,0 M90.1680815,5.51470588 C94.2088285,5.51470588 97.1086587,8.36397059 97.1086587,12.5 C97.1086587,13.28125 97.013107,14.0165441 96.8234295,14.7058824 L96.0152801,13.6488971 L89.5500849,13.6488971 L93.4957555,18.75 C92.5449915,19.2095588 91.4040747,19.4852941 90.2156197,19.4852941 C86.1748727,19.4852941 83.2750424,16.6360294 83.2750424,12.5 C83.2270289,8.40992647 86.1273345,5.51470588 90.1680815,5.51470588" id="path-3"></path>
    </defs>
    <g id="Symbols" stroke="none" stroke-width="1" fill="none" fill-rule="evenodd">
        <g id="Footer" transform="translate(-250.000000, -34.000000)">
            <g id="Group" transform="translate(250.000000, 34.000000)">
                <mask id="mask-2" fill="white">
                    <use xlink:href="#path-1"></use>
                </mask>
                <use id="Combined-Shape" fill="#FFFFFF" xlink:href="#path-1"></use>
                <mask id="mask-4" fill="white">
                    <use xlink:href="#path-3"></use>
                </mask>
                <use id="Q" fill="#6351FE" xlink:href="#path-3"></use>
            </g>
        </g>
    </g>
</svg>
